X: 4333
T: Boil The Breakfast Early
R: reel
M: 4/4
K: Gmajor
dBB2 dAFA|dBB2 dege|dBB2 GBAB|GEE2 c2Bc|
dBB2 dAFA|dBB2 dege|dBB2 GBAB|GEE2 c3e||
d2fd fdgd|d2fd gdfd|d2fd edcA|GEE2 c3e|
d2fd fdgd|d2fd (3gag fg|aff2 dBB2|GEE2 c2Bc||

